IMB-X-Files/The-Ambassadors-Assets/65f43207d48584352641670a_ticketSpice.svg

<svg fill="none" height="24" viewBox="0 0 153 24" width="153" xmlns="http://www.w3.org/2000/svg" xmlns:xlink="http://www.w3.org/1999/xlink"><clipPath id="a"><path d="m0 0h153v24h-153z"/></clipPath><mask id="b" height="24" maskUnits="userSpaceOnUse" width="153" x="0" y="0"><path d="m153 0h-153v24h153z" fill="#fff"/></mask><g clip-path="url(#a)"><g clip-rule="evenodd" fill="#090a0b" fill-rule="evenodd" mask="url(#b)"><path d="m24.3501 14.0673c-1.8151 3.2071-3.9918 5.0104-8.6992 5.5308-5.1871.5791-9.47403-2.7892-11.16739-5.3036 2.15949.7592 4.46011 1.0395 6.74029.821 4.2279-.3848 6.6406-2.0452 8.3709-4.7648.2619-.40686.9702-1.68236-.2693-2.11119-1.1363-.39218-2.1804-.40318-2.992.78069-1.3171 1.9316-2.8592 2.672-6.0872 3.0239-4.30175.4581-9.466678-2.37148-10.064334-1.7813-1.069879 1.0555 2.401694 12.6597 15.196034 12.5168 4.6078-.0514 7.8433-1.6127 10.8722-5.4979.7378-.942.5091-2.0855-.2989-3.1594-.498-.6635-1.2063-.7111-1.5863-.0404"/><path d="m27.7123 7.10698c1.7155-4.44227.059-7.238849-.5755-7.10690093-.5165.11362293-1.4757 3.03482093-2.8408 4.73549093-4.5894-2.08919-7.4707-.19059-7.4043.81735.0554.83934 3.8332.23457 7.3785 3.29871 3.7667 3.24377 3.8774 6.75867 4.9547 6.74407.8632 0 2.6968-3.4197-1.5126-8.48872z"/><path d="m39.3685 7.51381h-4.6263v-2.72694h12.4733v2.72694h-4.6226v12.38119h-3.2244z"/><path d="m48.6523 7.4515h3.0953v-2.66463h-3.0953zm.0443 12.4619h3.0104v-11.06544h-3.0104z"/><path d="m64.1965 15.8926c-.0589 1.1903-.5566 2.3175-1.3982 3.1667-.8117.782-2.0267 1.1729-3.645 1.1729-.8389.0143-1.6724-.1351-2.4533-.4398-.6514-.2529-1.2312-.6592-1.6897-1.1839-.4522-.5356-.7853-1.1601-.9777-1.8326-.2216-.7772-.3297-1.582-.3209-2.3897-.0116-.8163.113-1.6287.3689-2.4044.2291-.688.5983-1.3218 1.0846-1.862.4844-.52126 1.0791-.92935 1.7414-1.19483 1.4026-.51028 2.9338-.55529 4.3643-.12828.5238.16786 1.009.43691 1.4278.79169.3865.33574.6949.75092.9038 1.21682.2218.4935.3673 1.0174.4317 1.5541l-3.0326.4032c-.0445-.4891-.2147-.9586-.4943-1.3635-.1641-.187-.3712-.332-.6037-.4226s-.4835-.1242-.7319-.0979c-.3996-.0149-.7953.0843-1.1399.2859-.3018.1932-.5494.4593-.7194.7734-.183.3439-.3076.7154-.369 1.0996-.0717.43-.1075.8652-.1069 1.3011-.0009.4469.0349.8931.1069 1.3342.0647.3903.1891.7686.369 1.1215.1651.3143.4107.5798.712.7697.3443.2026.7402.3019 1.14.2859.255.0163.5107-.0203.7507-.1074.2401-.087.4593-.2227.6438-.3984.3595-.4068.5656-.925.5829-1.4661z"/><path d="m66.0312 4.78687h2.9478v7.91333l4.32-3.85224h3.4864l-4.0877 3.80824 4.4087 7.2388h-3.2465l-3.313-5.5895-1.5679 1.3965v4.193h-2.9478z"/><path d="m87.7681 16.4461c-.1223 1.0992-.6652 2.1096-1.5163 2.8223-.8067.6426-1.9848.9639-3.5343.9639-1.8667 0-3.2686-.5082-4.2057-1.5247s-1.4068-2.4545-1.4093-4.314c-.014-.8472.1247-1.6901.4095-2.4887.253-.6829.6448-1.3067 1.1511-1.8326.4931-.51427 1.0938-.91465 1.7597-1.17296.7296-.2672 1.5024-.3989 2.28-.38852 1.7216 0 3.0153.4887 3.881 1.4661.867.97498 1.3023 2.28348 1.3023 3.93648v1.1839h-7.7732c-.0179.7492.2215 1.4822.6789 2.0782.247.2574.5487.4568.8831.5836.3345.1268.6932.1779 1.05.1494 1.1916 0 1.8926-.4948 2.1103-1.466zm-2.7743-3.2987c.0437-.6448-.1592-1.2823-.5682-1.785-.2345-.2274-.516-.4016-.8249-.5104s-.6379-.1498-.9643-.12c-.3611-.0081-.7201.0568-1.0552.1906-.2873.1187-.5472.2946-.7636.5168-.2085.2213-.3725.48-.4833.7624-.1161.3012-.1809.6196-.1918.9419z"/><path d="m90.5448 11.1534h-1.7636v-2.30544h1.7636v-2.93219h3.0104v2.93219h2.5825v2.30544h-2.5825v5.102c0 .5755.1218.9676.3689 1.1729.2666.2135.6024.323.9445.3079.2046-.0001.409-.0112.6124-.033.2073-.0203.4123-.0596.6124-.1173l.4317 2.1992c-.3959.1236-.8021.2119-1.2138.2638-.3755.049-.754.0734-1.1327.0734-1.2322 0-2.1433-.2896-2.741-.865-.5977-.5755-.8928-1.5541-.8928-2.9322z"/><path d="m101.515 14.9616c.074.931.369 1.609.915 2.0342s1.332.6341 2.376.6341c.428.0084.856-.0447 1.269-.1576.305-.0874.59-.2317.841-.4252.204-.1654.363-.3799.461-.6231.094-.2508.142-.5166.14-.7843-.009-.4096-.171-.8013-.454-1.0996-.297-.3446-.849-.5889-1.656-.7331l-2-.3665c-.71-.1189-1.408-.3029-2.084-.5498-.555-.1999-1.068-.498-1.5164-.8796-.4128-.3696-.7325-.8304-.9333-1.3452-.2274-.5941-.3364-1.22649-.321-1.86193-.0127-.66024.1381-1.31346.439-1.90226.294-.54845.7151-1.01957 1.2287-1.37446.572-.38807 1.209-.67111 1.881-.83568.788-.19764 1.597-.29372 2.41-.28589.944-.03063 1.888.09319 2.792.36653.666.207 1.282.54895 1.808 1.00427.447.39875.797.894 1.022 1.44777.221.55039.37 1.12697.443 1.71534l-3.033.36652c-.09-.67901-.416-1.30532-.922-1.77031-.454-.36653-1.137-.54979-2.055-.54979-.452-.00882-.903.03672-1.343.13562-.302.07304-.589.19702-.849.36652-.198.12468-.356.3043-.453.5168-.085.19323-.129.40148-.129.61209-.019.23565.016.47237.1.69341.084.22105.216.42102.387.58576.485.35109 1.05.57659 1.645.65609l2.11.4032c1.66.3225 2.879.8479 3.656 1.576.777.7282 1.164 1.7752 1.159 3.1411.009.63-.116 1.2549-.369 1.8327-.254.5651-.632 1.0663-1.107 1.4661-.544.4422-1.171.7723-1.845.9712-.85.2543-1.735.3779-2.623.3666-2.095 0-3.694-.4399-4.796-1.3195-1.1017-.8797-1.7006-2.2102-1.7965-3.9915z"/><path d="m112.574 8.84806h2.921v1.46614c.387-.57076.915-1.03473 1.531-1.34876.617-.31403 1.303-.46789 1.995-.44725 1.566 0 2.735.52168 3.51 1.56511.775 1.0433 1.16 2.4752 1.157 4.2956.01.8086-.102 1.614-.332 2.3898-.197.6737-.525 1.3025-.965 1.8509-.417.5017-.943.9028-1.539 1.1729-.642.2995-1.345.4499-2.055.4398-.569-.002-1.133-.1025-1.667-.2969-.618-.2467-1.156-.656-1.557-1.1838v5.2486h-3.011zm2.988 5.60784c-.016.5796.045 1.1588.181 1.7227.101.3953.306.757.594 1.0482.245.2338.544.4048.87.4985.292.0775.592.1169.893.1173.325-.0002.646-.065.945-.1906.308-.1331.578-.341.784-.6048.244-.3182.423-.6804.528-1.0666.138-.5174.203-1.0517.192-1.587.012-.5492-.049-1.0977-.181-1.631-.098-.3855-.269-.7488-.504-1.0703-.198-.26-.462-.4635-.764-.5901-.297-.121-.617-.182-.938-.1796-.328-.0074-.655.0422-.966.1466-.29.11-.56.2673-.798.4655-.294.28-.511.6292-.633 1.0153-.15.5092-.218 1.0385-.203 1.5687z"/><path d="m125.648 7.4515h3.11v-2.66463h-3.096zm.04 12.4619h3.014v-11.06544h-3.014z"/><path d="m141.17 15.8927c-.054 1.1892-.548 2.3168-1.387 3.1667-.812.782-2.028 1.1729-3.649 1.1729-.838.0143-1.67-.1352-2.45-.4398-.651-.2529-1.231-.6592-1.689-1.1839-.452-.5356-.786-1.1601-.978-1.8326-.222-.7772-.33-1.582-.321-2.3897-.012-.8163.113-1.6287.369-2.4044.229-.688.598-1.3218 1.085-1.862.492-.52178 1.096-.92753 1.767-1.18754 1.394-.50702 2.915-.55458 4.338-.13561.524.16705 1.01.43618 1.428.79169.387.33574.695.75096.904 1.21686.22.4942.365 1.0178.432 1.5541l-3.044.4032c-.045-.4891-.215-.9586-.494-1.3635-.165-.187-.372-.332-.604-.4226-.233-.0906-.484-.1242-.732-.0979-.4-.0149-.795.0843-1.14.2859-.308.1908-.563.4571-.738.7734-.184.3432-.309.715-.369 1.0995-.071.4301-.107.8653-.107 1.3012-.001.4469.035.8931.107 1.3342.063.3907.188.7692.369 1.1215.165.3143.411.5798.712.7697.343.2021.738.3014 1.137.2859.255.0168.512-.0195.752-.1066.241-.0871.461-.223.646-.3992.359-.4068.565-.925.583-1.4661z"/><path d="m152.869 16.446c-.125 1.0982-.667 2.1074-1.516 2.8223-.811.6426-1.991.9639-3.538.9639-1.862 0-3.264-.5082-4.206-1.5247s-1.411-2.4545-1.409-4.314c-.014-.8472.125-1.69.41-2.4887.253-.6829.644-1.3067 1.151-1.8326.499-.50941 1.105-.90356 1.774-1.15462.73-.26656 1.503-.39823 2.28-.38852 1.722 0 3.016.4887 3.881 1.4661.867.97504 1.303 2.28344 1.303 3.93654v1.1838h-7.788c-.017.7531.227 1.489.689 2.0856.248.2574.551.4568.886.5836s.694.1779 1.051.1494c1.188 0 1.893-.4948 2.107-1.4661zm-2.774-3.2987c.043-.6453-.161-1.2828-.572-1.785-.232-.2261-.511-.3998-.817-.5092-.307-.1094-.633-.152-.957-.1249-.36-.0081-.718.0568-1.052.1906-.288.117-.548.2931-.763.5168-.209.2213-.373.4801-.484.7624-.119.3006-.185.6192-.195.942z"/></g></g></svg>

<svg width="153" height="24" viewBox="0 0 153 24" fill="none" xmlns="http://www.w3.org/2000/svg">
<g clip-path="url(#clip0_6789_20227)">
<mask id="mask0_6789_20227" style="mask-type:luminance" maskUnits="userSpaceOnUse" x="0" y="0" width="153" height="24">
<path d="M153 0H0V24H153V0Z" fill="white"/>
</mask>
<g mask="url(#mask0_6789_20227)">
<path fill-rule="evenodd" clip-rule="evenodd" d="M24.3501 14.0673C22.535 17.2744 20.3583 19.0777 15.6509 19.5981C10.4638 20.1772 6.17687 16.8089 4.48351 14.2945C6.643 15.0537 8.94362 15.334 11.2238 15.1155C15.4517 14.7307 17.8644 13.0703 19.5947 10.3507C19.8566 9.94384 20.5649 8.66834 19.3254 8.23951C18.1891 7.84733 17.145 7.83633 16.3334 9.0202C15.0163 10.9518 13.4742 11.6922 10.2462 12.0441C5.94445 12.5022 0.779522 9.67262 0.181866 10.2628C-0.888013 11.3183 2.58356 22.9225 15.3779 22.7796C19.9857 22.7282 23.2212 21.1669 26.2501 17.2817C26.9879 16.3397 26.7592 15.1962 25.9512 14.1223C25.4532 13.4588 24.7449 13.4112 24.3649 14.0819" fill="#090A0B"/>
<path fill-rule="evenodd" clip-rule="evenodd" d="M27.7123 7.10698C29.4278 2.66471 27.7713 -0.131869 27.1368 7.90735e-05C26.6203 0.113702 25.6611 3.0349 24.296 4.73557C19.7066 2.64638 16.8253 4.54498 16.8917 5.55292C16.9471 6.39226 20.7249 5.78749 24.2702 8.85163C28.0369 12.0954 28.1476 15.6103 29.2249 15.5957C30.0881 15.5957 31.9217 12.176 27.7123 7.10698Z" fill="#090A0B"/>
<path fill-rule="evenodd" clip-rule="evenodd" d="M39.3685 7.51381H34.7422V4.78687H47.2155V7.51381H42.5929V19.895H39.3685V7.51381Z" fill="#090A0B"/>
<path fill-rule="evenodd" clip-rule="evenodd" d="M48.6523 7.4515H51.7476V4.78687H48.6523V7.4515ZM48.6966 19.9134H51.707V8.84796H48.6966V19.9134Z" fill="#090A0B"/>
<path fill-rule="evenodd" clip-rule="evenodd" d="M64.1965 15.8926C64.1376 17.0829 63.6399 18.2101 62.7983 19.0593C61.9866 19.8413 60.7716 20.2322 59.1533 20.2322C58.3144 20.2465 57.4809 20.0971 56.7 19.7924C56.0486 19.5395 55.4688 19.1332 55.0103 18.6085C54.5581 18.0729 54.225 17.4484 54.0326 16.7759C53.811 15.9987 53.7029 15.1939 53.7117 14.3862C53.7001 13.5699 53.8247 12.7575 54.0806 11.9818C54.3097 11.2938 54.6789 10.66 55.1652 10.1198C55.6496 9.59854 56.2443 9.19045 56.9066 8.92497C58.3092 8.41469 59.8404 8.36968 61.2709 8.79669C61.7947 8.96455 62.2799 9.2336 62.6987 9.58838C63.0852 9.92412 63.3936 10.3393 63.6025 10.8052C63.8243 11.2987 63.9698 11.8226 64.0342 12.3593L61.0016 12.7625C60.9571 12.2734 60.7869 11.8039 60.5073 11.399C60.3432 11.212 60.1361 11.067 59.9036 10.9764C59.6711 10.8858 59.4201 10.8522 59.1717 10.8785C58.7721 10.8636 58.3764 10.9628 58.0318 11.1644C57.73 11.3576 57.4824 11.6237 57.3124 11.9378C57.1294 12.2817 57.0048 12.6532 56.9434 13.0374C56.8717 13.4674 56.8359 13.9026 56.8365 14.3385C56.8356 14.7854 56.8714 15.2316 56.9434 15.6727C57.0081 16.063 57.1325 16.4413 57.3124 16.7942C57.4775 17.1085 57.7231 17.374 58.0244 17.5639C58.3687 17.7665 58.7646 17.8658 59.1644 17.8498C59.4194 17.8661 59.6751 17.8295 59.9151 17.7424C60.1552 17.6554 60.3744 17.5197 60.5589 17.344C60.9184 16.9372 61.1245 16.419 61.1418 15.8779L64.1965 15.8926Z" fill="#090A0B"/>
<path fill-rule="evenodd" clip-rule="evenodd" d="M66.0312 4.78687H68.979V12.7002L73.299 8.84796H76.7854L72.6977 12.6562L77.1064 19.895H73.8599L70.5469 14.3055L68.979 15.702V19.895H66.0312V4.78687Z" fill="#090A0B"/>
<path fill-rule="evenodd" clip-rule="evenodd" d="M87.7681 16.4461C87.6458 17.5453 87.1029 18.5557 86.2518 19.2684C85.4451 19.911 84.267 20.2323 82.7175 20.2323C80.8508 20.2323 79.4489 19.7241 78.5118 18.7076C77.5747 17.6911 77.105 16.2531 77.1025 14.3936C77.0885 13.5464 77.2272 12.7035 77.512 11.9049C77.765 11.222 78.1568 10.5982 78.6631 10.0723C79.1562 9.55803 79.7569 9.15765 80.4228 8.89934C81.1524 8.63214 81.9252 8.50044 82.7028 8.51082C84.4244 8.51082 85.7181 8.99952 86.5838 9.97692C87.4508 10.9519 87.8861 12.2604 87.8861 13.9134V15.0973H80.1129C80.095 15.8465 80.3344 16.5795 80.7918 17.1755C81.0388 17.4329 81.3405 17.6323 81.6749 17.7591C82.0094 17.8859 82.3681 17.937 82.7249 17.9085C83.9165 17.9085 84.6175 17.4137 84.8352 16.4425L87.7681 16.4461ZM84.9938 13.1474C85.0375 12.5026 84.8346 11.8651 84.4256 11.3624C84.1911 11.135 83.9096 10.9608 83.6007 10.852C83.2918 10.7432 82.9628 10.7022 82.6364 10.732C82.2753 10.7239 81.9163 10.7888 81.5812 10.9226C81.2939 11.0413 81.034 11.2172 80.8176 11.4394C80.6091 11.6607 80.4451 11.9194 80.3343 12.2018C80.2182 12.503 80.1534 12.8214 80.1425 13.1437L84.9938 13.1474Z" fill="#090A0B"/>
<path fill-rule="evenodd" clip-rule="evenodd" d="M90.5448 11.1534H88.7812V8.84796H90.5448V5.91577H93.5552V8.84796H96.1377V11.1534H93.5552V16.2554C93.5552 16.8309 93.677 17.223 93.9241 17.4283C94.1907 17.6418 94.5265 17.7513 94.8686 17.7362C95.0732 17.7361 95.2776 17.725 95.481 17.7032C95.6883 17.6829 95.8933 17.6436 96.0934 17.5859L96.5251 19.7851C96.1292 19.9087 95.723 19.997 95.3113 20.0489C94.9358 20.0979 94.5573 20.1223 94.1786 20.1223C92.9464 20.1223 92.0353 19.8327 91.4376 19.2573C90.8399 18.6818 90.5448 17.7032 90.5448 16.3251V11.1534Z" fill="#090A0B"/>
<path fill-rule="evenodd" clip-rule="evenodd" d="M101.515 14.9616C101.589 15.8926 101.884 16.5706 102.43 16.9958C102.976 17.421 103.762 17.6299 104.806 17.6299C105.234 17.6383 105.662 17.5852 106.075 17.4723C106.38 17.3849 106.665 17.2406 106.916 17.0471C107.12 16.8817 107.279 16.6672 107.377 16.424C107.471 16.1732 107.519 15.9074 107.517 15.6397C107.508 15.2301 107.346 14.8384 107.063 14.5401C106.766 14.1955 106.214 13.9512 105.407 13.807L103.407 13.4405C102.697 13.3216 101.999 13.1376 101.323 12.8907C100.768 12.6908 100.255 12.3927 99.8066 12.0111C99.3938 11.6415 99.0741 11.1807 98.8733 10.6659C98.6459 10.0718 98.5369 9.43941 98.5523 8.80397C98.5396 8.14373 98.6904 7.49051 98.9913 6.90171C99.2853 6.35326 99.7064 5.88214 100.22 5.52725C100.792 5.13918 101.429 4.85614 102.101 4.69157C102.889 4.49393 103.698 4.39785 104.511 4.40568C105.455 4.37505 106.399 4.49887 107.303 4.77221C107.969 4.97921 108.585 5.32116 109.111 5.77648C109.558 6.17523 109.908 6.67048 110.133 7.22425C110.354 7.77464 110.503 8.35122 110.576 8.93959L107.543 9.30611C107.453 8.6271 107.127 8.00079 106.621 7.5358C106.167 7.16927 105.484 6.98601 104.566 6.98601C104.114 6.97719 103.663 7.02273 103.223 7.12163C102.921 7.19467 102.634 7.31865 102.374 7.48815C102.176 7.61283 102.018 7.79245 101.921 8.00495C101.836 8.19818 101.792 8.40643 101.792 8.61704C101.773 8.85269 101.808 9.08941 101.892 9.31045C101.976 9.5315 102.108 9.73147 102.279 9.89621C102.764 10.2473 103.329 10.4728 103.924 10.5523L106.034 10.9555C107.694 11.278 108.913 11.8034 109.69 12.5315C110.467 13.2597 110.854 14.3067 110.849 15.6726C110.858 16.3026 110.733 16.9275 110.48 17.5053C110.226 18.0704 109.848 18.5716 109.373 18.9714C108.829 19.4136 108.202 19.7437 107.528 19.9426C106.678 20.1969 105.793 20.3205 104.905 20.3092C102.81 20.3092 101.211 19.8693 100.109 18.9897C99.0073 18.11 98.4084 16.7795 98.3125 14.9982L101.515 14.9616Z" fill="#090A0B"/>
<path fill-rule="evenodd" clip-rule="evenodd" d="M112.574 8.84806H115.495V10.3142C115.882 9.74344 116.41 9.27947 117.026 8.96544C117.643 8.65141 118.329 8.49755 119.021 8.51819C120.587 8.51819 121.756 9.03987 122.531 10.0833C123.306 11.1266 123.691 12.5585 123.688 14.3789C123.698 15.1875 123.586 15.9929 123.356 16.7687C123.159 17.4424 122.831 18.0712 122.391 18.6196C121.974 19.1213 121.448 19.5224 120.852 19.7925C120.21 20.092 119.507 20.2424 118.797 20.2323C118.228 20.2303 117.664 20.1298 117.13 19.9354C116.512 19.6887 115.974 19.2794 115.573 18.7516V24.0002H112.562L112.574 8.84806ZM115.562 14.4559C115.546 15.0355 115.607 15.6147 115.743 16.1786C115.844 16.5739 116.049 16.9356 116.337 17.2268C116.582 17.4606 116.881 17.6316 117.207 17.7253C117.499 17.8028 117.799 17.8422 118.1 17.8426C118.425 17.8424 118.746 17.7776 119.045 17.652C119.353 17.5189 119.623 17.311 119.829 17.0472C120.073 16.729 120.252 16.3668 120.357 15.9806C120.495 15.4632 120.56 14.9289 120.549 14.3936C120.561 13.8444 120.5 13.2959 120.368 12.7626C120.27 12.3771 120.099 12.0138 119.864 11.6923C119.666 11.4323 119.402 11.2288 119.1 11.1022C118.803 10.9812 118.483 10.9202 118.162 10.9226C117.834 10.9152 117.507 10.9648 117.196 11.0692C116.906 11.1792 116.636 11.3365 116.398 11.5347C116.104 11.8147 115.887 12.1639 115.765 12.55C115.615 13.0592 115.547 13.5885 115.562 14.1187V14.4559Z" fill="#090A0B"/>
<path fill-rule="evenodd" clip-rule="evenodd" d="M125.648 7.4515H128.758V4.78687H125.662L125.648 7.4515ZM125.688 19.9134H128.702V8.84796H125.688V19.9134Z" fill="#090A0B"/>
<path fill-rule="evenodd" clip-rule="evenodd" d="M141.17 15.8927C141.116 17.0819 140.622 18.2095 139.783 19.0594C138.971 19.8414 137.755 20.2323 136.134 20.2323C135.296 20.2466 134.464 20.0971 133.684 19.7925C133.033 19.5396 132.453 19.1333 131.995 18.6086C131.543 18.073 131.209 17.4485 131.017 16.776C130.795 15.9988 130.687 15.194 130.696 14.3863C130.684 13.57 130.809 12.7576 131.065 11.9819C131.294 11.2939 131.663 10.6601 132.15 10.1199C132.642 9.59812 133.246 9.19237 133.917 8.93236C135.311 8.42534 136.832 8.37778 138.255 8.79675C138.779 8.9638 139.265 9.23293 139.683 9.58844C140.07 9.92418 140.378 10.3394 140.587 10.8053C140.807 11.2995 140.952 11.8231 141.019 12.3594L137.975 12.7626C137.93 12.2735 137.76 11.804 137.481 11.3991C137.316 11.2121 137.109 11.0671 136.877 10.9765C136.644 10.8859 136.393 10.8523 136.145 10.8786C135.745 10.8637 135.35 10.9629 135.005 11.1645C134.697 11.3553 134.442 11.6216 134.267 11.9379C134.083 12.2811 133.958 12.6529 133.898 13.0374C133.827 13.4675 133.791 13.9027 133.791 14.3386C133.79 14.7855 133.826 15.2317 133.898 15.6728C133.961 16.0635 134.086 16.442 134.267 16.7943C134.432 17.1086 134.678 17.3741 134.979 17.564C135.322 17.7661 135.717 17.8654 136.116 17.8499C136.371 17.8667 136.628 17.8304 136.868 17.7433C137.109 17.6562 137.329 17.5203 137.514 17.3441C137.873 16.9373 138.079 16.4191 138.097 15.878L141.17 15.8927Z" fill="#090A0B"/>
<path fill-rule="evenodd" clip-rule="evenodd" d="M152.869 16.446C152.744 17.5442 152.202 18.5534 151.353 19.2683C150.542 19.9109 149.362 20.2322 147.815 20.2322C145.953 20.2322 144.551 19.724 143.609 18.7075C142.667 17.691 142.198 16.253 142.2 14.3935C142.186 13.5463 142.325 12.7035 142.61 11.9048C142.863 11.2219 143.254 10.5981 143.761 10.0722C144.26 9.56279 144.866 9.16864 145.535 8.91758C146.265 8.65102 147.038 8.51935 147.815 8.52906C149.537 8.52906 150.831 9.01776 151.696 9.99516C152.563 10.9702 152.999 12.2786 152.999 13.9317V15.1155H145.211C145.194 15.8686 145.438 16.6045 145.9 17.2011C146.148 17.4585 146.451 17.6579 146.786 17.7847C147.121 17.9115 147.48 17.9626 147.837 17.9341C149.025 17.9341 149.73 17.4393 149.944 16.468L152.869 16.446ZM150.095 13.1473C150.138 12.502 149.934 11.8645 149.523 11.3623C149.291 11.1362 149.012 10.9625 148.706 10.8531C148.399 10.7437 148.073 10.7011 147.749 10.7282C147.389 10.7201 147.031 10.785 146.697 10.9188C146.409 11.0358 146.149 11.2119 145.934 11.4356C145.725 11.6569 145.561 11.9157 145.45 12.198C145.331 12.4986 145.265 12.8172 145.255 13.14L150.095 13.1473Z" fill="#090A0B"/>
</g>
</g>
<defs>
<clipPath id="clip0_6789_20227">
<rect width="153" height="24" fill="white"/>
</clipPath>
</defs>
</svg>
